X: 28045
T: Mozart On The Rampage
R: reel
M: 4/4
K: Dmajor
|:g3d Bdge|fgfd Adfd|eA ~A2 aece|fA ~A2 agfd|
g3d Bdge|fgfd Adfd|eA ~A2 aece|1 cddc d4:|2 cddc d3||
|:c|BBgB BgdB|~A2 fA AfdA|~A2 eA AecA|~A2 fA AfdA|
BBgB BgdB|~A2 fA AfdA|~A2 eA AecA|1 cddc d3:|2 cddc d4||

